app/assets/images/heroicon/solid/hand-thumb-up.svg

<svg width="24" height="24" viewBox="0 0 24 24" fill="none" xmlns="http://www.w3.org/2000/svg">
<path d="M7.49281 19.5C7.06823 19.5 6.67296 19.2635 6.51759 18.8684C6.18349 18.0187 6 17.0933 6 16.125C6 14.3759 6.59874 12.7667 7.60244 11.491C7.75335 11.2993 7.97456 11.1821 8.20214 11.094C8.67496 10.9109 9.09254 10.5797 9.4141 10.1697C10.1873 9.18384 11.1617 8.3634 12.2755 7.77021C12.9977 7.38563 13.6243 6.81428 13.9281 6.05464C14.1408 5.5231 14.25 4.95587 14.25 4.38338V3.75C14.25 3.33579 14.5858 3 15 3C16.2426 3 17.25 4.00736 17.25 5.25C17.25 6.40163 16.9904 7.49263 16.5266 8.46771C16.261 9.02604 16.6336 9.75 17.2519 9.75H20.3777C21.4044 9.75 22.3233 10.444 22.432 11.4649C22.4769 11.8871 22.5 12.3158 22.5 12.75C22.5 15.5976 21.5081 18.2136 19.851 20.2712C19.4634 20.7525 18.8642 21 18.2462 21H14.2302C13.7466 21 13.2661 20.922 12.8072 20.7691L9.69278 19.7309C9.23393 19.578 8.75342 19.5 8.26975 19.5H7.49281Z" fill="#0F172A"/>
<path d="M2.33149 11.7271C1.79481 13.0889 1.5 14.5725 1.5 16.125C1.5 17.3451 1.68208 18.5226 2.02056 19.632C2.27991 20.482 3.10418 21 3.99289 21H4.90067C5.3462 21 5.62137 20.5017 5.42423 20.1022C4.83248 18.9029 4.5 17.5528 4.5 16.125C4.5 14.4168 4.97588 12.8198 5.8023 11.4593C6.0473 11.0559 5.77404 10.5 5.30212 10.5H4.24936C3.41733 10.5 2.63655 10.953 2.33149 11.7271Z" fill="#0F172A"/>
</svg>

<svg xmlns="http://www.w3.org/2000/svg" viewBox="0 0 24 24" fill="currentColor" aria-hidden="true">
  <path d="M7.493 19.5c-.425 0-.82-.236-.975-.632A7.48 7.48 0 016 16.125c0-1.75.599-3.358 1.602-4.634.151-.192.373-.309.6-.397.473-.183.89-.514 1.212-.924a9.041 9.041 0 012.861-2.4c.723-.384 1.35-.956 1.653-1.715a4.498 4.498 0 00.322-1.672V3.75A.75.75 0 0115 3a2.25 2.25 0 012.25 2.25c0 1.152-.26 2.243-.723 3.218-.266.558.107 1.282.725 1.282h3.126c1.026 0 1.945.694 2.054 1.715.045.422.068.85.068 1.285a11.95 11.95 0 01-2.649 7.521c-.388.482-.987.729-1.605.729H14.23c-.483 0-.964-.078-1.423-.23l-3.114-1.04a4.501 4.501 0 00-1.423-.23h-.777zM2.331 11.727a11.969 11.969 0 00-.831 4.398 12 12 0 00.52 3.507C2.28 20.482 3.105 21 3.994 21H4.9c.445 0 .72-.498.523-.898a8.963 8.963 0 01-.924-3.977c0-1.708.476-3.305 1.302-4.666.245-.403-.028-.959-.5-.959H4.25c-.832 0-1.612.453-1.918 1.227z"/>
</svg>
